material/.icons/material/wallet-plus-outline.svg

<svg xmlns="http://www.w3.org/2000/svg" viewBox="0 0 24 24"><path d="M3 0v3H0v2h3v3h2V5h3V3H5V0H3m7 3v2h9v2h-6c-1.1 0-2 .9-2 2v6c0 1.1.9 2 2 2h6v2H5v-9H3v9a2 2 0 002 2h14c1.1 0 2-.9 2-2v-2.28A2 2 0 0022 15V9a2 2 0 00-1-1.72V5c0-1.1-.9-2-2-2h-9m3 6h7v6h-7V9m3 1.5a1.5 1.5 0 00-1.5 1.5 1.5 1.5 0 001.5 1.5 1.5 1.5 0 001.5-1.5 1.5 1.5 0 00-1.5-1.5z"/></svg>

<?xml version="1.0" encoding="UTF-8"?><!DOCTYPE svg PUBLIC "-//W3C//DTD SVG 1.1//EN" "http://www.w3.org/Graphics/SVG/1.1/DTD/svg11.dtd"><svg xmlns="http://www.w3.org/2000/svg" xmlns:xlink="http://www.w3.org/1999/xlink" version="1.1" id="mdi-wallet-plus-outline" width="24" height="24" viewBox="0 0 24 24"><path d="M3 0V3H0V5H3V8H5V5H8V3H5V0H3M10 3V5H19V7H13C11.9 7 11 7.9 11 9V15C11 16.1 11.9 17 13 17H19V19H5V10H3V19C3 20.1 3.89 21 5 21H19C20.1 21 21 20.1 21 19V16.72C21.59 16.37 22 15.74 22 15V9C22 8.26 21.59 7.63 21 7.28V5C21 3.9 20.1 3 19 3H10M13 9H20V15H13V9M16 10.5A1.5 1.5 0 0 0 14.5 12A1.5 1.5 0 0 0 16 13.5A1.5 1.5 0 0 0 17.5 12A1.5 1.5 0 0 0 16 10.5Z" /></svg>
